public/icons.svg

<svg aria-hidden="true" style="position: absolute; width: 0; height: 0; overflow: hidden;" version="1.1" xmlns="http://www.w3.org/2000/svg" xmlns:xlink="http://www.w3.org/1999/xlink">
<defs>
<symbol id="icon-IoReorderThreeOutline" viewBox="0 0 32 32">
<path d="M5 11c0-0.552 0.448-1 1-1h20c0.552 0 1 0.448 1 1s-0.448 1-1 1h-20c-0.552 0-1-0.448-1-1zM5 16c0-0.552 0.448-1 1-1h20c0.552 0 1 0.448 1 1s-0.448 1-1 1h-20c-0.552 0-1-0.448-1-1zM5 21c0-0.552 0.448-1 1-1h20c0.552 0 1 0.448 1 1s-0.448 1-1 1h-20c-0.552 0-1-0.448-1-1z"></path>
</symbol>
<symbol id="icon-clock" viewBox="0 0 32 32">
<path stroke-linejoin="round" stroke-linecap="round" stroke-miterlimit="4" stroke-width="2.4" d="M15.999 29.333c7.364 0 13.333-5.969 13.333-13.333s-5.97-13.333-13.333-13.333c-7.364 0-13.333 5.97-13.333 13.333s5.97 13.333 13.333 13.333z"></path>
<path stroke-linejoin="round" stroke-linecap="round" stroke-miterlimit="4" stroke-width="2.4" d="M16 8v8l5.333 2.667"></path>
</symbol>
<symbol id="icon-chevron-down" viewBox="0 0 32 32">
<path fill="none" stroke="#fbfbfb" style="stroke: var(--color1, #fbfbfb)" stroke-linejoin="round" stroke-linecap="round" stroke-miterlimit="4" stroke-width="3.2" d="M8 12l8 8 8-8"></path>
</symbol>
<symbol id="icon-point" viewBox="0 0 32 32">
<path fill="#fbfbfb" style="fill: var(--color1, #fbfbfb)" d="M32 16c0 8.837-7.163 16-16 16s-16-7.163-16-16c0-8.837 7.163-16 16-16s16 7.163 16 16z"></path>
<path fill="#38cd3e" style="fill: var(--color2, #38cd3e)" d="M26.668 16c0 5.891-4.776 10.667-10.667 10.667s-10.667-4.776-10.667-10.667c0-5.891 4.776-10.667 10.667-10.667s10.667 4.776 10.667 10.667z"></path>
</symbol>
<symbol id="icon-cross" viewBox="0 0 32 32">
<path stroke-linejoin="round" stroke-linecap="round" stroke-miterlimit="4" stroke-width="2.5" d="M24 8l-16 16"></path>
<path stroke-linejoin="round" stroke-linecap="round" stroke-miterlimit="4" stroke-width="2.5" d="M8 8l16 16"></path>
</symbol>
<symbol id="icon-star" viewBox="0 0 32 32">
<path fill="#ffc531" style="fill: var(--color3, #ffc531); stroke: var(--color3, #ffc531)" stroke="#ffc531" stroke-linejoin="miter" stroke-linecap="butt" stroke-miterlimit="4" stroke-width="2.4" d="M12.4 9.394l3.6-6.822 3.6 6.822c0.318 0.603 0.899 1.025 1.571 1.141l7.601 1.315-5.376 5.532c-0.475 0.489-0.697 1.171-0.6 1.846l1.098 7.635-6.922-3.404c-0.612-0.301-1.329-0.301-1.941 0l-6.922 3.404 1.098-7.635c0.097-0.675-0.125-1.357-0.6-1.846l-5.376-5.532 7.601-1.315c0.672-0.116 1.252-0.538 1.571-1.141z"></path>
</symbol>
<symbol id="icon-heart" viewBox="0 0 32 32">
<path stroke-linejoin="round" stroke-linecap="round" stroke-miterlimit="4" stroke-width="2.4615" d="M27.787 6.147c-0.681-0.681-1.49-1.222-2.379-1.591s-1.844-0.559-2.807-0.559-1.917 0.19-2.807 0.559c-0.89 0.369-1.699 0.909-2.38 1.591l-1.413 1.413-1.413-1.413c-1.376-1.376-3.241-2.148-5.187-2.148s-3.811 0.773-5.187 2.148c-1.376 1.376-2.148 3.241-2.148 5.187s0.773 3.811 2.148 5.187l11.787 11.787 11.787-11.787c0.681-0.681 1.222-1.49 1.591-2.38s0.559-1.844 0.559-2.807-0.19-1.917-0.559-2.807c-0.369-0.89-0.909-1.699-1.591-2.38z"></path>
</symbol>
<symbol id="icon-users" viewBox="0 0 32 32">
<path fill="#fbfbfb" style="fill: var(--color1, #fbfbfb)" d="M19.041 22.529l-0.548 2.044-14.306-3.833 0.548-2.044c0 0 1.095-4.087 8.248-2.171s6.058 6.004 6.058 6.004zM18.066 11.863c0.189-0.707 0.165-1.455-0.070-2.149s-0.671-1.302-1.252-1.747c-0.581-0.446-1.281-0.709-2.012-0.757s-1.459 0.122-2.093 0.488c-0.634 0.366-1.146 0.912-1.469 1.569s-0.446 1.395-0.35 2.121c0.096 0.726 0.404 1.407 0.887 1.958s1.118 0.946 1.825 1.135c0.949 0.254 1.959 0.121 2.81-0.37s1.471-1.3 1.725-2.248zM20.075 18.425c0.498 0.654 0.846 1.41 1.021 2.214s0.171 1.636-0.011 2.438l-0.548 2.044 4.087 1.095 0.548-2.044c0 0 0.994-3.709-5.097-5.747zM21.579 8.971c-0.702-0.192-1.447-0.166-2.134 0.074 0.388 1.034 0.443 2.163 0.158 3.229s-0.898 2.017-1.751 2.718c0.475 0.552 1.106 0.947 1.811 1.131 0.948 0.254 1.959 0.121 2.81-0.37s1.471-1.3 1.725-2.248c0.254-0.949 0.121-1.959-0.37-2.81s-1.3-1.471-2.248-1.725z"></path>
</symbol>
<symbol id="icon-question" viewBox="0 0 19 32">
<path fill="#fbfbfb" style="fill: var(--color1, #fbfbfb)" d="M4.706 10c0-2.206 1.688-4 3.765-4h1.882c2.076 0 3.765 1.794 3.765 4v0.225c0 1.363-0.653 2.631-1.729 3.362l-2.482 1.694c-0.729 0.498-1.328 1.182-1.744 1.99s-0.633 1.714-0.633 2.635v0.094c0 1.106 0.841 2 1.882 2s1.882-0.894 1.882-2v-0.088c0-0.512 0.247-0.987 0.647-1.262l2.482-1.694c2.153-1.475 3.459-4.006 3.459-6.731v-0.225c0-4.419-3.371-8-7.529-8h-1.882c-4.159 0-7.529 3.581-7.529 8 0 1.106 0.841 2 1.882 2s1.882-0.894 1.882-2zM9.412 30c0.624 0 1.223-0.263 1.664-0.732s0.689-1.105 0.689-1.768c0-0.663-0.248-1.299-0.689-1.768s-1.040-0.732-1.664-0.732-1.223 0.263-1.664 0.732c-0.441 0.469-0.689 1.105-0.689 1.768s0.248 1.299 0.689 1.768 1.040 0.732 1.664 0.732z"></path>
</symbol>
<symbol id="icon-arrow" viewBox="0 0 28 32">
<path fill="#fbfbfb" style="fill: var(--color1, #fbfbfb)" d="M24.137 3.149c-0.145-1.029-1.096-1.747-2.126-1.602l-16.776 2.358c-1.029 0.145-1.747 1.097-1.602 2.126s1.097 1.747 2.126 1.602l14.912-2.096 2.096 14.912c0.145 1.029 1.096 1.747 2.126 1.602s1.747-1.097 1.602-2.126l-2.358-16.776zM3.386 31.604l20.391-27.060-3.007-2.266-20.391 27.060 3.007 2.266z"></path>
</symbol>
<symbol id="icon-check" viewBox="0 0 40 32">
<path fill="#fc832c" style="fill: var(--color4, #fc832c)" d="M5 11l-5 5 15 15 25-25-5-5-20 20-10-10z"></path>
</symbol>
<symbol id="icon-eye" viewBox="0 0 32 32">
<path stroke-linejoin="round" stroke-linecap="round" stroke-miterlimit="4" stroke-width="3.2" d="M1.334 16c0 0 5.333-10.667 14.667-10.667s14.667 10.667 14.667 10.667-5.333 10.667-14.667 10.667c-9.333 0-14.667-10.667-14.667-10.667z"></path>
<path stroke-linejoin="round" stroke-linecap="round" stroke-miterlimit="4" stroke-width="3.2" d="M16 20c2.209 0 4-1.791 4-4s-1.791-4-4-4c-2.209 0-4 1.791-4 4s1.791 4 4 4z"></path>
</symbol>
<symbol id="icon-eye-off" viewBox="0 0 32 32">
<path stroke-linejoin="round" stroke-linecap="round" stroke-miterlimit="4" stroke-width="3.2" d="M23.921 23.92c-2.279 1.737-5.055 2.7-7.92 2.747-9.333 0-14.667-10.667-14.667-10.667 1.659-3.091 3.959-5.791 6.747-7.92M13.201 5.653c0.918-0.215 1.857-0.322 2.8-0.32 9.333 0 14.667 10.667 14.667 10.667-0.809 1.514-1.775 2.94-2.88 4.253M18.828 18.827c-0.366 0.393-0.808 0.708-1.298 0.927s-1.020 0.336-1.557 0.346c-0.537 0.009-1.071-0.089-1.569-0.291s-0.95-0.501-1.33-0.88c-0.38-0.38-0.679-0.832-0.88-1.33s-0.3-1.032-0.29-1.569c0.009-0.537 0.127-1.067 0.346-1.558s0.534-0.932 0.927-1.298"></path>
<path stroke-linejoin="round" stroke-linecap="round" stroke-miterlimit="4" stroke-width="3.2" d="M1.334 1.333l29.333 29.333"></path>
</symbol>
<symbol id="icon-user" viewBox="0 0 32 32">
<path fill="#fbfbfb" style="fill: var(--color1, #fbfbfb)" d="M16 5.333c1.415 0 2.771 0.562 3.771 1.562s1.562 2.357 1.562 3.771-0.562 2.771-1.562 3.771c-1 1-2.357 1.562-3.771 1.562s-2.771-0.562-3.771-1.562c-1-1-1.562-2.357-1.562-3.771s0.562-2.771 1.562-3.771c1-1 2.357-1.562 3.771-1.562zM16 18.667c5.893 0 10.667 2.387 10.667 5.333v2.667h-21.333v-2.667c0-2.947 4.773-5.333 10.667-5.333z"></path>
</symbol>
</defs>
</svg>

<svg aria-hidden="true" style="position:absolute;width:0;height:0;overflow:hidden" xmlns="http://www.w3.org/2000/svg"><defs><symbol id="icon-IoReorderThreeOutline" viewBox="0 0 32 32"><path d="M5 11a1 1 0 0 1 1-1h20a1 1 0 0 1 0 2H6a1 1 0 0 1-1-1zm0 5a1 1 0 0 1 1-1h20a1 1 0 0 1 0 2H6a1 1 0 0 1-1-1zm0 5a1 1 0 0 1 1-1h20a1 1 0 0 1 0 2H6a1 1 0 0 1-1-1z"/></symbol><symbol id="icon-clock" viewBox="0 0 32 32"><path stroke-linejoin="round" stroke-linecap="round" stroke-width="2.4" d="M15.999 29.333c7.364 0 13.333-5.969 13.333-13.333S23.362 2.667 15.999 2.667C8.635 2.667 2.666 8.637 2.666 16s5.97 13.333 13.333 13.333z"/><path stroke-linejoin="round" stroke-linecap="round" stroke-width="2.4" d="M16 8v8l5.333 2.667"/></symbol><symbol id="icon-chevron-down" viewBox="0 0 32 32"><path fill="none" stroke="#fbfbfb" style="stroke:var(--color1, #fbfbfb)" stroke-linejoin="round" stroke-linecap="round" stroke-width="3.2" d="m8 12 8 8 8-8"/></symbol><symbol id="icon-point" viewBox="0 0 32 32"><path fill="#fbfbfb" style="fill:var(--color1, #fbfbfb)" d="M32 16c0 8.837-7.163 16-16 16S0 24.837 0 16 7.163 0 16 0s16 7.163 16 16z"/><path fill="#38cd3e" style="fill:var(--color2, #38cd3e)" d="M26.668 16c0 5.891-4.776 10.667-10.667 10.667S5.334 21.891 5.334 16 10.11 5.333 16.001 5.333 26.668 10.109 26.668 16z"/></symbol><symbol id="icon-cross" viewBox="0 0 32 32"><path stroke-linejoin="round" stroke-linecap="round" stroke-width="2.5" d="M24 8 8 24M8 8l16 16"/></symbol><symbol id="icon-star" viewBox="0 0 32 32"><path fill="#ffc531" style="fill:var(--color3, #ffc531);stroke:var(--color3, #ffc531)" stroke="#ffc531" stroke-width="2.4" d="M12.4 9.394 16 2.572l3.6 6.822a2.2 2.2 0 0 0 1.571 1.141l7.601 1.315-5.376 5.532a2.2 2.2 0 0 0-.6 1.846l1.098 7.635-6.922-3.404a2.199 2.199 0 0 0-1.941 0l-6.922 3.404 1.098-7.635a2.2 2.2 0 0 0-.6-1.846L3.231 11.85l7.601-1.315a2.202 2.202 0 0 0 1.571-1.141z"/></symbol><symbol id="icon-heart" viewBox="0 0 32 32"><path stroke-linejoin="round" stroke-linecap="round" stroke-width="2.462" d="M27.787 6.147a7.326 7.326 0 0 0-10.373 0L16.001 7.56l-1.413-1.413a7.333 7.333 0 0 0-10.374 0 7.333 7.333 0 0 0 0 10.374l11.787 11.787 11.787-11.787a7.345 7.345 0 0 0 2.15-5.187 7.33 7.33 0 0 0-2.15-5.187z"/></symbol><symbol id="icon-users" viewBox="0 0 32 32"><path fill="#fbfbfb" style="fill:var(--color1, #fbfbfb)" d="m19.041 22.529-.548 2.044L4.187 20.74l.548-2.044s1.095-4.087 8.248-2.171 6.058 6.004 6.058 6.004zm-.975-10.666c.189-.707.165-1.455-.07-2.149s-.671-1.302-1.252-1.747a3.701 3.701 0 1 0 1.323 3.896zm2.009 6.562a5.63 5.63 0 0 1 1.01 4.652l-.548 2.044 4.087 1.095.548-2.044s.994-3.709-5.097-5.747zm1.504-9.454a3.597 3.597 0 0 0-2.134.074 5.288 5.288 0 0 1-1.593 5.947 3.583 3.583 0 0 0 1.811 1.131 3.705 3.705 0 0 0 4.535-2.618A3.704 3.704 0 0 0 21.58 8.97z"/></symbol><symbol id="icon-question" viewBox="0 0 19 32"><path fill="#fbfbfb" style="fill:var(--color1, #fbfbfb)" d="M4.706 10c0-2.206 1.688-4 3.765-4h1.882c2.076 0 3.765 1.794 3.765 4v.225c0 1.363-.653 2.631-1.729 3.362l-2.482 1.694c-.729.498-1.328 1.182-1.744 1.99s-.633 1.714-.633 2.635V20c0 1.106.841 2 1.882 2s1.882-.894 1.882-2v-.088c0-.512.247-.987.647-1.262l2.482-1.694c2.153-1.475 3.459-4.006 3.459-6.731V10c0-4.419-3.371-8-7.529-8H8.471C4.312 2 .942 5.581.942 10c0 1.106.841 2 1.882 2s1.882-.894 1.882-2zm4.706 20c.624 0 1.223-.263 1.664-.732s.689-1.105.689-1.768-.248-1.299-.689-1.768S10.036 25 9.412 25s-1.223.263-1.664.732c-.441.469-.689 1.105-.689 1.768s.248 1.299.689 1.768S8.788 30 9.412 30z"/></symbol><symbol id="icon-arrow" viewBox="0 0 28 32"><path fill="#fbfbfb" style="fill:var(--color1, #fbfbfb)" d="M24.137 3.149a1.882 1.882 0 0 0-2.126-1.602L5.235 3.905a1.883 1.883 0 0 0 .524 3.728l14.912-2.096 2.096 14.912a1.882 1.882 0 1 0 3.728-.524L24.137 3.149zM3.386 31.604l20.391-27.06-3.007-2.266L.379 29.338l3.007 2.266z"/></symbol><symbol id="icon-check" viewBox="0 0 40 32"><path fill="#fc832c" style="fill:var(--color4, #fc832c)" d="m5 11-5 5 15 15L40 6l-5-5-20 20L5 11z"/></symbol><symbol id="icon-eye" viewBox="0 0 32 32"><path stroke-linejoin="round" stroke-linecap="round" stroke-width="3.2" d="M1.334 16S6.667 5.333 16.001 5.333 30.668 16 30.668 16s-5.333 10.667-14.667 10.667C6.668 26.667 1.334 16 1.334 16z"/><path stroke-linejoin="round" stroke-linecap="round" stroke-width="3.2" d="M16 20a4 4 0 1 0 0-8 4 4 0 0 0 0 8z"/></symbol><symbol id="icon-eye-off" viewBox="0 0 32 32"><path stroke-linejoin="round" stroke-linecap="round" stroke-width="3.2" d="M23.921 23.92a13.43 13.43 0 0 1-7.92 2.747C6.668 26.667 1.334 16 1.334 16a24.605 24.605 0 0 1 6.747-7.92m5.12-2.427a12.161 12.161 0 0 1 2.8-.32C25.334 5.333 30.668 16 30.668 16a24.646 24.646 0 0 1-2.88 4.253m-8.96-1.426a4.01 4.01 0 0 1-2.855 1.273 3.996 3.996 0 0 1-3.779-2.501 3.995 3.995 0 0 1 .056-3.127c.219-.491.534-.932.927-1.298M1.334 1.333l29.333 29.333"/></symbol><symbol id="icon-user" viewBox="0 0 32 32"><path fill="#fbfbfb" style="fill:var(--color1, #fbfbfb)" d="M16 5.333a5.332 5.332 0 1 1 0 10.665 5.332 5.332 0 0 1 0-10.665zm0 13.334c5.893 0 10.667 2.387 10.667 5.333v2.667H5.334V24c0-2.947 4.773-5.333 10.667-5.333z"/></symbol></defs></svg>
